logo.svg

<?xml version="1.0" encoding="UTF-8" standalone="no"?>
<svg
   xmlns:sketch="http://www.bohemiancoding.com/sketch/ns"
   xmlns:dc="http://purl.org/dc/elements/1.1/"
   xmlns:cc="http://creativecommons.org/ns#"
   xmlns:rdf="http://www.w3.org/1999/02/22-rdf-syntax-ns#"
   xmlns:svg="http://www.w3.org/2000/svg"
   xmlns="http://www.w3.org/2000/svg"
   xmlns:xlink="http://www.w3.org/1999/xlink"
   xmlns:sodipodi="http://sodipodi.sourceforge.net/DTD/sodipodi-0.dtd"
   xmlns:inkscape="http://www.inkscape.org/namespaces/inkscape"
   width="133.53152"
   height="45"
   viewBox="0 0 133.53152 45"
   version="1.1"
   id="svg3355"
   inkscape:version="0.91 r"
   sodipodi:docname="logo.svg">
  <metadata
     id="metadata3379">
    <rdf:RDF>
      <cc:Work
         rdf:about="">
        <dc:format>image/svg+xml</dc:format>
        <dc:type
           rdf:resource="http://purl.org/dc/dcmitype/StillImage" />
        <dc:title>tieto</dc:title>
      </cc:Work>
    </rdf:RDF>
  </metadata>
  <sodipodi:namedview
     pagecolor="#ffffff"
     bordercolor="#666666"
     borderopacity="1"
     objecttolerance="10"
     gridtolerance="10"
     guidetolerance="10"
     inkscape:pageopacity="0"
     inkscape:pageshadow="2"
     inkscape:window-width="1867"
     inkscape:window-height="1176"
     id="namedview3377"
     showgrid="false"
     fit-margin-top="0"
     fit-margin-left="0"
     fit-margin-right="0"
     fit-margin-bottom="0"
     inkscape:zoom="5.0307018"
     inkscape:cx="67"
     inkscape:cy="23"
     inkscape:window-x="53"
     inkscape:window-y="24"
     inkscape:window-maximized="1"
     inkscape:current-layer="svg3355" />
  <!-- Generator: Sketch 3.4.4 (17249) - http://www.bohemiancoding.com/sketch -->
  <title
     id="title3357">tieto</title>
  <desc
     id="desc3359">Created with Sketch.</desc>
  <defs
     id="defs3361">
    <path
       id="path-1"
       d="m 0.06232558,0.02930233 133.46919442,0 0,44.90790667 -133.46919442,0 0,-44.90790667 z"
       inkscape:connector-curvature="0" />
  </defs>
  <g
     id="Page-1"
     sketch:type="MSPage"
     style="fill:none;fill-rule:evenodd;stroke:none;stroke-width:1"
     transform="translate(-47,-35)">
    <g
       id="logos"
       sketch:type="MSArtboardGroup"
       transform="translate(-1015,-907)">
      <g
         id="tieto_logo_blue"
         sketch:type="MSLayerGroup"
         transform="translate(1062,942)">
        <g
           id="Group-5">
          <mask
             id="mask-2"
             sketch:name="Clip 2"
             fill="white">
            <use
               xlink:href="#path-1"
               id="use3369"
               x="0"
               y="0"
               width="100%"
               height="100%" />
          </mask>
          <g
             id="Clip-2" />
          <path
             d="m 64.14445,24.217326 c -0.198403,-3.674303 -2.854512,-6.713372 -6.540031,-6.713372 -3.894311,0 -6.487055,2.725116 -7.127969,6.713372 l 13.668,0 0,0 z m -13.668,6.020581 c 0.189054,4.49686 2.845162,7.478372 7.516465,7.478372 2.656108,0 5.248852,-1.205581 6.278263,-3.613605 l 10.307613,0 C 72.564636,41.704535 65.373302,45 57.856837,45 46.90831,45 39.463519,38.537791 39.463519,27.512791 c 0,-10.070582 8.220745,-17.297791 18.1409,-17.297791 12.05169,0 18.076496,8.874419 17.552961,20.022907 l -24.68093,0 0,0 z"
             id="Fill-1"
             sketch:type="MSShapeGroup"
             mask="url(#mask-2)"
             inkscape:connector-curvature="0"
             style="fill:#ffffff" />
          <path
             d="m 115.76977,36.76186 c 5.12316,0 6.73947,-4.938488 6.73947,-9.121395 0,-4.182907 -1.61631,-9.187326 -6.73947,-9.187326 -5.11278,0 -6.66676,5.004419 -6.66676,9.187326 0,4.182907 1.55398,9.121395 6.66676,9.121395 l 0,0 z m 0,-26.54686 c 10.43434,0 17.76175,7.540116 17.76175,17.425465 C 133.53152,37.525814 126.20411,45 115.76977,45 105.34478,45 98.090078,37.525814 98.090078,27.640465 98.090078,17.755116 105.34478,10.215 115.76977,10.215 l 0,0 z"
             id="Fill-3"
             sketch:type="MSShapeGroup"
             mask="url(#mask-2)"
             inkscape:connector-curvature="0"
             style="fill:#ffffff" />
          <path
             d="m 23.388713,18.232326 -6.801798,0 0,14.632325 c 0,2.67593 1.553984,3.261977 3.947287,3.261977 0.90372,0 1.879116,-0.131861 2.854511,-0.131861 l 0,8.159652 c -2.014155,0.06384 -4.02,0.327558 -6.025845,0.327558 -9.3945424,0 -11.7982323,-2.743954 -11.7982323,-11.944884 l 0,-14.304767 -5.5646357,0 0,-7.176977 5.5646357,0 0,-11.02500016 11.0222793,0 0,11.02500016 6.801798,0 0,7.176977"
             id="Fill-4"
             sketch:type="MSShapeGroup"
             mask="url(#mask-2)"
             inkscape:connector-curvature="0"
             style="fill:#ffffff" />
        </g>
        <path
           d="m 26,10.994782 10.998963,0 0,33.005218 L 26,44 26,10.994782 Z M 26,0 l 11,0 0,7.9726781 -11,0 L 26,0 Z"
           id="Fill-6"
           sketch:type="MSShapeGroup"
           inkscape:connector-curvature="0"
           style="fill:#ffffff" />
        <path
           d="m 98,18.017045 -6.688755,0 0,14.483661 c 0,2.648743 1.528158,3.228835 3.881685,3.228835 0.888701,0 1.847885,-0.13052 2.80707,-0.13052 l 0,8.076749 C 96.01932,43.738959 94.046811,44 92.075324,44 82.835894,44 80.472153,41.283925 80.472153,32.176476 l 0,-14.159431 -5.472153,0 0,-7.104059 5.472153,0 0,-10.912986 10.839092,0 0,10.912986 6.688755,0 0,7.104059"
           id="Fill-7"
           sketch:type="MSShapeGroup"
           inkscape:connector-curvature="0"
           style="fill:#ffffff" />
      </g>
    </g>
  </g>
</svg>

<svg xmlns="http://www.w3.org/2000/svg" xmlns:xlink="http://www.w3.org/1999/xlink" width="133.532" height="45" viewBox="0 0 133.53152 45"><title>tieto</title><defs><path id="a" d="M.062.03h133.47v44.907H.062V.03z"/></defs><g fill="#fff" fill-rule="evenodd"><mask id="b"><use xlink:href="#a" width="100%" height="100%"/></mask><path d="M64.144 24.217c-.198-3.674-2.854-6.713-6.54-6.713-3.894 0-6.487 2.725-7.128 6.713h13.668zm-13.668 6.02c.19 4.498 2.846 7.48 7.517 7.48 2.656 0 5.249-1.206 6.278-3.614H74.58C72.565 41.705 65.373 45 57.857 45c-10.949 0-18.393-6.462-18.393-17.487 0-10.07 8.22-17.298 18.14-17.298 12.052 0 18.077 8.874 17.553 20.023h-24.68zm65.294 6.525c5.123 0 6.74-4.939 6.74-9.122 0-4.182-1.617-9.187-6.74-9.187-5.113 0-6.667 5.005-6.667 9.187 0 4.183 1.554 9.122 6.667 9.122zm0-26.547c10.434 0 17.762 7.54 17.762 17.425 0 9.886-7.328 17.36-17.762 17.36-10.425 0-17.68-7.474-17.68-17.36 0-9.885 7.255-17.425 17.68-17.425zm-92.381 8.017h-6.802v14.633c0 2.676 1.554 3.262 3.947 3.262.904 0 1.88-.132 2.855-.132v8.16c-2.014.063-4.02.327-6.026.327-9.395 0-11.798-2.744-11.798-11.945V18.232H0v-7.177h5.565V.03h11.022v11.025h6.802v7.177" mask="url(#b)"/><path d="M26 10.995h10.999V44H26V10.995zM26 0h11v7.973H26V0zm72 18.017h-6.689v14.484c0 2.648 1.528 3.229 3.882 3.229.889 0 1.848-.131 2.807-.131v8.077c-1.98.063-3.953.324-5.925.324-9.24 0-11.603-2.716-11.603-11.824V18.017H75v-7.104h5.472V0h10.84v10.913H98v7.104"/></g></svg>
